X:1
T:The Final Countdown
N:Transposed
C:Europe
M:4/4
Q:1/4=120
K:Bb
L:1/8
z2 zd/c/ d2 G2|z2 ze/d/ ed c2|
z2 ze/d/ e2 G2|A2 zc/B/ cBAc|B2 zd/c/ d2 G2|
z2 ze/d/ ed c2|z2 ze/d/ e2 G2|A2 zc/B/ cBAc|
B2 zd/c/ d2 G2|z2 ze/d/ ed c2|z2 ze/d/ e2 G2|
A2 zc/B/ cBAc|B2 zd/c/ d2 G2|z2 ze/d/ ed c2|
z2 ze/d/ e2 G2|z2 zc/B/ cBAc|B3 A/B/ c3 B/c/|
dcBA G2 e2|d6 d/e/d/c/|d8

